static/fa/svgs/solid/skull-crossbones.svg

<svg xmlns="http://www.w3.org/2000/svg" viewBox="0 0 448 512"><!--! Font Awesome Free 6.1.1 by @fontawesome - https://fontawesome.com License - https://fontawesome.com/license/free (Icons: CC BY 4.0, Fonts: SIL OFL 1.1, Code: MIT License) Copyright 2022 Fonticons, Inc.--><path d="M368 128c0 44.4-25.4 83.5-64 106.4V256c0 17.7-14.3 32-32 32h-96.9c-16.8 0-32-14.3-32-32v-21.6c-37.7-22.9-64-62-64-106.4 0-70.69 65.4-128 144-128C303.5 0 368 57.31 368 128zm-200.9 48c18.6 0 32-14.3 32-32s-13.4-32-32-32c-16.8 0-32 14.3-32 32s15.2 32 32 32zM280 112c-17.7 0-32 14.3-32 32s14.3 32 32 32 32-14.3 32-32-14.3-32-32-32zM3.378 273.7c7.902-15.8 27.122-22.2 42.932-14.3l176.79 88.8 178.6-88.8c15.8-7.9 35-1.5 42.9 14.3 7.9 15.8 1.5 35-14.3 42.9L295.6 384l134.7 67.4c15.8 7.9 22.2 27.1 14.3 42.9-7.9 15.8-27.1 22.2-42.9 14.3l-178.6-88.8-176.79 88.8c-15.81 7.9-35.03 1.5-42.932-14.3-7.904-15.8-1.497-35 14.312-42.9L152.4 384 17.69 316.6c-15.809-7.9-22.216-27.1-14.312-42.9z"/></svg>

<svg xmlns="http://www.w3.org/2000/svg" viewBox="0 0 448 512"><!--! Font Awesome Free 6.1.1 by @fontawesome - https://fontawesome.com License - https://fontawesome.com/license/free (Icons: CC BY 4.0, Fonts: SIL OFL 1.1, Code: MIT License) Copyright 2022 Fonticons, Inc. --><path d="M368 128C368 172.4 342.6 211.5 304 234.4V256C304 273.7 289.7 288 272 288H175.1C158.3 288 143.1 273.7 143.1 256V234.4C105.4 211.5 79.1 172.4 79.1 128C79.1 57.31 144.5 0 223.1 0C303.5 0 368 57.31 368 128V128zM167.1 176C185.7 176 199.1 161.7 199.1 144C199.1 126.3 185.7 112 167.1 112C150.3 112 135.1 126.3 135.1 144C135.1 161.7 150.3 176 167.1 176zM280 112C262.3 112 248 126.3 248 144C248 161.7 262.3 176 280 176C297.7 176 312 161.7 312 144C312 126.3 297.7 112 280 112zM3.378 273.7C11.28 257.9 30.5 251.5 46.31 259.4L223.1 348.2L401.7 259.4C417.5 251.5 436.7 257.9 444.6 273.7C452.5 289.5 446.1 308.7 430.3 316.6L295.6 384L430.3 451.4C446.1 459.3 452.5 478.5 444.6 494.3C436.7 510.1 417.5 516.5 401.7 508.6L223.1 419.8L46.31 508.6C30.5 516.5 11.28 510.1 3.378 494.3C-4.526 478.5 1.881 459.3 17.69 451.4L152.4 384L17.69 316.6C1.881 308.7-4.526 289.5 3.378 273.7V273.7z"/></svg>
